X:1
T:Title
%%score { ( 1 4 ) | ( 2 3 ) }
L:1/8
M:6/8
K:Ab
V:1 treble nm="Grand Piano"
V:4 treble 
V:2 bass 
V:3 bass 
V:1
 z3 z2[Q:1/4=90] [CE]/[CA]/ | [Ec]2 [Ec] [Ed]2 [DEG] | [DEB] [CEA]2- [CEA]2 [A,EA]/[A,EG]/ | %3
 [A,DF]2 [DA] [=DB]2 [DA] |[M:5/8] G-G- G3 |[M:1/8] E/A/ |[M:3/4] c2 c d2 G | %7
 [DEB][CEA]- [CEA]3 [CA]/[Ec]/ | [Fd]2 BA cB | [CA]6 | [CE]>[CA] [Ec][Ec] [EB][EA] | B6 | %12
 E>G Bd cB | c6 | [CE][CA] [DB] [Ec]2 [Ec] | [Fd][FA] [DF] [FB]2 [FA] | G>G GG cB | %17
[M:5/8] A-A- A3 |] %18
V:2
 z3 z2 [A,,A,]/[A,,A,]/ | [A,,A,]2 [A,,A,] [E,B,]2 E, | A,, A,,2- A,,2 C,/C,/ | %3
 D,2 [D,F,] [B,,F,]2 [B,,B,] |[M:5/8] [E,B,E]-[E,B,E]- [E,B,E]3 |[M:1/8] [A,C]/[A,C]/ | %6
[M:3/4] [A,E]2 [A,E] [E,B,E]2 [E,DE] | A,,A,,- A,,3 [A,,A,]/[A,,A,]/ | %8
 [D,A,]2 [D,F,D]C [A,E][E,G,D] | [A,,A,]6 | [A,,A,]>[A,,A,] [A,,A,][A,,A,] [B,,G,][C,A,] | %11
 [E,G,E]2 [E,G,] .[E,G,]3 | [E,G,]>[E,B,E] [E,G,E][E,B,E] [E,A,E][E,G,E] | [A,E]2 A, A,2 [A,,A,] | %14
 [A,,A,][A,,A,] [A,,A,] [A,,A,]2 [A,,A,] | [D,A,][D,A,] [D,A,] [D,D]2 [=D,B,] | %16
 [E,B,E]>[E,B,E] [E,B,E][E,B,E] [E,A,E][E,G,D] |[M:5/8] [A,,A,]2 [A,,F,] [A,,E,]2 |] %18
V:3
 x6 | x6 | x6 | x6 |[M:5/8] x5 |[M:1/8] x |[M:3/4] x6 | x6 | z2 z .E,3 | x6 | x6 | x6 | x6 | x6 | %14
 x6 | x6 | x6 |[M:5/8] x5 |] %18
V:4
 x6 | x6 | x6 | x6 |[M:5/8] x5 |[M:1/8] x |[M:3/4] x6 | x6 | x6 | x6 | x6 | z2 E .E3 | x6 | %13
 z2 E E2 [CE] | x6 | x6 | x6 |[M:5/8] C2 D C2 |] %18

